X: 1
T: Heritage Waltz  [Dm]
C: Andy Statman
S: printed MS from Steve Rauch
Z: 2008 John Chambers <jc:trillian.mit.edu>
M: 3/4
L: 1/4
K: Dm
|:"Dm"DEF | A2A | "Gm"B2A/G/ | "Dm"A3 \
| "A7"EGE | "Dm"F2D | "A7"^C/D/EC |1 "Dm"D2A, :|2 "Dm"D3 ||
|: "Gm"d2c | BAG | "Dm"c2B | AGF \
| "A7"EFG |1 ABG | "Dm"A3- | "(D7)"A3 :|2 "A7"AEF | "Dm"D3- | D2 ||
|: C \
| "F"FGA | A3 | "Bb"BAG | "F"A3 \
| "Bb"DFD | "F"CDF |1 "C7"G2F | ED :|2 "C7"E/F/GE | "F"F3 |]
